X: 34666
T: Road To Cashel, The
R: reel
M: 4/4
K: Edorian
FEED ~E3G|FE~E2 FABA|FEED ~E3 G|FDDc dABA:|
~B3d ef{a}fe|df~f2 afed|Bdge ~f3e|dBAF {G}FE{F}ED|
~B3d ef{a}fe|df ~f2 aefa|bf~f2 aefa|bfaf edBA|

